_inc/images/systems/logos/freej2me.svg

<?xml version="1.0" encoding="utf-8"?>
<svg width="155px" height="75px" version="1.1" viewBox="0 0 264 128" xmlns="http://www.w3.org/2000/svg">
  <g id="surface1" transform="matrix(1.703231, 0, 0, 1.706997, -0.000361, -0.008285)">
    <path style=" stroke:none;fill-rule:nonzero;fill:rgb(100%,100%,100%);fill-opacity:1;" d="M 155 57.769531 C 153.792969 57.769531 152.652344 57.792969 151.511719 57.757812 C 150.835938 57.738281 150.484375 57.394531 150.347656 56.707031 C 150.273438 56.339844 150.289062 55.957031 150.21875 55.589844 C 150.097656 54.960938 149.753906 54.789062 149.191406 55.082031 C 148.863281 55.269531 148.554688 55.480469 148.265625 55.71875 C 145.003906 58.257812 141.371094 59.039062 137.363281 58.058594 C 134.160156 57.277344 132.078125 54.660156 131.84375 51.289062 C 131.472656 45.953125 134.972656 42.578125 139.007812 41.457031 C 140.589844 41.015625 142.273438 40.914062 143.917969 40.722656 C 145.371094 40.550781 146.835938 40.472656 148.289062 40.335938 C 149.097656 40.257812 149.359375 39.976562 149.289062 39.183594 C 149.171875 37.847656 149.132812 36.484375 148.824219 35.191406 C 148.324219 33.070312 146.808594 31.996094 144.6875 31.78125 C 141.507812 31.453125 138.421875 31.921875 135.425781 33.03125 C 135.1875 33.121094 134.933594 33.28125 134.699219 33.257812 C 134.488281 33.238281 134.191406 33.0625 134.105469 32.875 C 133.886719 32.375 133.761719 31.828125 133.597656 31.300781 C 133.371094 30.585938 133.523438 30.183594 134.207031 29.929688 C 137.945312 28.542969 141.75 27.488281 145.785156 27.875 C 147.0625 27.984375 148.324219 28.246094 149.542969 28.648438 C 152.527344 29.675781 153.925781 32.003906 154.675781 34.972656 C 155.035156 36.382812 154.972656 37.746094 154.980469 39.128906 C 155.011719 45.054688 154.992188 50.984375 154.992188 56.914062 Z M 146.507812 43.738281 C 144.726562 43.777344 142.957031 43.863281 141.230469 44.382812 C 138.964844 45.070312 137.683594 46.527344 137.449219 48.929688 C 137.15625 51.941406 138.964844 54.195312 141.945312 54.421875 C 143.488281 54.542969 144.902344 54.050781 146.28125 53.429688 C 147.90625 52.703125 148.949219 51.472656 149.109375 49.691406 C 149.265625 47.941406 149.242188 46.171875 149.269531 44.410156 C 149.273438 43.96875 148.972656 43.738281 148.523438 43.738281 C 147.851562 43.734375 147.179688 43.738281 146.507812 43.738281 Z M 146.507812 43.738281 "/>
    <path style=" stroke:none;fill-rule:nonzero;fill:rgb(100%,100%,100%);fill-opacity:1;" d="M 98.804688 45.835938 C 98.804688 49.328125 98.804688 52.820312 98.804688 56.3125 C 98.804688 57.53125 98.566406 57.769531 97.351562 57.78125 C 96.996094 57.78125 96.640625 57.792969 96.285156 57.78125 C 95.019531 57.726562 94.480469 57.195312 94.332031 55.925781 C 94.292969 55.574219 94.148438 55.238281 94.050781 54.890625 C 93.6875 55.054688 93.269531 55.152344 92.964844 55.390625 C 90.945312 56.96875 88.699219 58.03125 86.144531 58.378906 C 83.589844 58.726562 81.175781 58.285156 78.980469 56.894531 C 77.40625 55.894531 76.664062 54.320312 76.285156 52.574219 C 75.398438 48.476562 76.628906 44.003906 82.164062 41.917969 C 84.414062 41.082031 86.785156 40.632812 89.179688 40.589844 C 90.085938 40.566406 90.988281 40.554688 91.890625 40.53125 C 92.671875 40.511719 93.101562 40.242188 93.265625 39.554688 C 93.710938 37.65625 93.601562 35.8125 92.605469 34.089844 C 91.703125 32.53125 90.230469 31.984375 88.546875 31.769531 C 85.769531 31.410156 83.121094 32.019531 80.484375 32.777344 C 80.011719 32.910156 79.546875 33.074219 79.078125 33.234375 C 78.582031 33.402344 78.332031 33.183594 78.210938 32.71875 C 78.105469 32.320312 78.007812 31.917969 77.863281 31.53125 C 77.507812 30.578125 77.679688 30.101562 78.65625 29.800781 C 80.296875 29.289062 81.945312 28.78125 83.613281 28.390625 C 86.777344 27.652344 89.953125 27.53125 93.117188 28.449219 C 96.648438 29.46875 98.707031 32.148438 98.757812 35.839844 C 98.777344 37.507812 98.757812 39.171875 98.757812 40.839844 L 98.757812 45.839844 Z M 93.429688 47.332031 L 93.390625 47.332031 C 93.390625 46.441406 93.398438 45.546875 93.390625 44.660156 C 93.382812 43.914062 93.210938 43.730469 92.480469 43.738281 C 91.453125 43.746094 90.421875 43.722656 89.398438 43.8125 C 88.164062 43.917969 86.910156 44.019531 85.710938 44.308594 C 83.164062 44.925781 81.96875 46.265625 81.664062 48.730469 C 81.445312 50.503906 81.722656 52.160156 83.246094 53.328125 C 84.589844 54.355469 86.140625 54.671875 87.789062 54.328125 C 89.609375 53.949219 91.144531 52.953125 92.632812 51.902344 C 93.304688 51.425781 93.433594 50.667969 93.433594 49.886719 C 93.429688 49.035156 93.429688 48.183594 93.429688 47.332031 Z M 93.429688 47.332031 "/>
    <path style=" stroke:none;fill-rule:nonzero;fill:rgb(100%,100%,100%);fill-opacity:1;" d="M 116.710938 52.273438 C 117.488281 49.949219 118.363281 47.652344 119.027344 45.296875 C 120.105469 41.449219 121.085938 37.570312 122.023438 33.6875 C 122.34375 32.347656 122.433594 30.949219 122.585938 29.566406 C 122.695312 28.59375 122.785156 28.453125 123.773438 28.445312 C 125.082031 28.429688 126.386719 28.429688 127.6875 28.46875 C 128.386719 28.488281 128.5625 28.753906 128.40625 29.4375 C 126.644531 37.117188 124.835938 44.785156 121.984375 52.160156 C 121.429688 53.597656 120.820312 55.015625 120.203125 56.433594 C 119.722656 57.535156 119.160156 57.8125 117.960938 57.78125 C 116.519531 57.742188 115.074219 57.75 113.632812 57.78125 C 112.621094 57.800781 112.292969 57.609375 111.988281 56.632812 C 109.179688 47.640625 106.375 38.648438 103.570312 29.652344 C 103.511719 29.464844 103.464844 29.269531 103.433594 29.074219 C 103.367188 28.660156 103.527344 28.429688 103.972656 28.433594 C 105.101562 28.433594 106.230469 28.425781 107.355469 28.433594 C 108.476562 28.441406 109.285156 29.003906 109.660156 30.066406 C 110.273438 31.800781 110.890625 33.535156 111.414062 35.304688 C 112.941406 40.464844 114.421875 45.640625 115.925781 50.804688 C 116.070312 51.292969 116.292969 51.757812 116.480469 52.234375 Z M 116.710938 52.273438 "/>
    <path style=" stroke:none;fill-rule:nonzero;fill:rgb(100%,100%,100%);fill-opacity:1;" d="M 71.015625 37.390625 C 71.015625 41.792969 71.066406 46.191406 70.996094 50.589844 C 70.957031 53.003906 70.886719 55.433594 70.527344 57.8125 C 69.867188 62.207031 67.558594 65.523438 63.589844 67.667969 C 61.96875 68.546875 59.890625 67.398438 59.34375 66.199219 C 59.140625 65.757812 59.105469 65.40625 59.628906 65.109375 C 62.953125 63.203125 64.570312 60.191406 64.972656 56.480469 C 65.140625 54.929688 65.160156 53.355469 65.164062 51.789062 C 65.195312 44.574219 65.210938 37.359375 65.207031 30.140625 C 65.207031 26.6875 65.152344 23.242188 65.132812 19.792969 C 65.125 17.996094 65.5 17.628906 67.300781 17.691406 C 68.050781 17.714844 68.800781 17.761719 69.546875 17.851562 C 70.390625 17.957031 70.714844 18.285156 70.851562 19.132812 C 70.914062 19.566406 70.941406 20 70.929688 20.4375 C 70.9375 26.085938 70.9375 31.738281 70.929688 37.390625 Z M 71.015625 37.390625 "/>
    <path style=" stroke:none;fill-rule:nonzero;fill:rgb(100%,100%,100%);fill-opacity:1;" d="M 36.546875 0.0117188 C 36.617188 0.0976562 36.722656 0.171875 36.75 0.269531 C 37.433594 2.96875 37.621094 5.660156 36.648438 8.34375 C 35.949219 10.265625 34.804688 11.886719 33.359375 13.304688 C 30.957031 15.664062 28.527344 17.992188 26.140625 20.367188 C 25.339844 21.164062 24.625 22.042969 23.894531 22.902344 C 21.605469 25.585938 21.160156 28.558594 22.664062 31.75 C 23.410156 33.324219 24.316406 34.820312 25.140625 36.355469 C 25.238281 36.535156 25.3125 36.730469 25.394531 36.921875 L 25.222656 37.058594 C 24.988281 36.792969 24.757812 36.515625 24.511719 36.257812 C 22.425781 34.109375 20.601562 31.726562 19.066406 29.152344 C 17.878906 27.160156 17.851562 25.167969 19.164062 23.285156 C 20.101562 21.949219 21.136719 20.632812 22.332031 19.53125 C 24.6875 17.359375 27.199219 15.351562 29.617188 13.25 C 30.753906 12.265625 31.898438 11.273438 32.921875 10.175781 C 35.148438 7.777344 36.21875 4.855469 36.460938 1.613281 C 36.484375 1.304688 36.386719 0.988281 36.363281 0.675781 C 36.347656 0.464844 36.363281 0.25 36.363281 0.0351562 Z M 36.546875 0.0117188 "/>
    <path style=" stroke:none;fill-rule:nonzero;fill:rgb(100%,100%,100%);fill-opacity:1;" d="M 43.027344 14.910156 C 40.859375 16.535156 38.738281 17.996094 36.761719 19.640625 C 35.53125 20.671875 34.433594 21.902344 33.445312 23.175781 C 32.070312 24.945312 32.066406 26.867188 33.273438 28.773438 C 34.011719 29.945312 34.773438 31.105469 35.457031 32.308594 C 36.179688 33.578125 36.714844 34.929688 36.492188 36.441406 C 36.445312 36.855469 36.332031 37.253906 36.15625 37.632812 C 35.226562 39.457031 33.78125 40.796875 32.121094 41.917969 L 31.984375 41.828125 C 32.085938 41.664062 32.179688 41.492188 32.289062 41.332031 C 33.578125 39.441406 33.605469 37.523438 32.375 35.601562 C 31.953125 34.933594 31.4375 34.324219 30.972656 33.683594 C 29.925781 32.25 29.023438 30.738281 28.675781 28.964844 C 28.140625 26.273438 28.921875 23.949219 30.734375 21.941406 C 32.679688 19.792969 35.035156 18.207031 37.644531 17 C 39.214844 16.273438 40.847656 15.65625 42.457031 14.996094 C 42.601562 14.9375 42.777344 14.945312 43.027344 14.910156 Z M 43.027344 14.910156 "/>
    <path style=" stroke:none;fill-rule:nonzero;fill:rgb(100%,100%,100%);fill-opacity:1;" d="M 52.367188 64.839844 C 52.804688 65.316406 52.703125 65.699219 52.359375 65.949219 C 51.550781 66.542969 50.753906 67.195312 49.855469 67.617188 C 47.636719 68.648438 45.257812 69.199219 42.859375 69.625 C 37.800781 70.523438 32.683594 70.820312 27.5625 70.976562 C 22.175781 71.136719 16.796875 71.027344 11.425781 70.6875 C 8.378906 70.492188 5.359375 70.101562 2.414062 69.269531 C 1.769531 69.078125 1.148438 68.816406 0.570312 68.480469 C -0.0742188 68.113281 -0.175781 67.554688 0.285156 66.972656 C 0.617188 66.53125 1.027344 66.152344 1.496094 65.859375 C 3.304688 64.824219 5.285156 64.304688 7.394531 64.164062 C 7.199219 64.253906 7 64.335938 6.808594 64.429688 C 6.253906 64.695312 5.691406 64.941406 5.160156 65.242188 C 4.722656 65.484375 4.4375 65.867188 4.480469 66.40625 C 4.523438 66.945312 4.890625 67.238281 5.34375 67.359375 C 6.792969 67.742188 8.238281 68.191406 9.710938 68.421875 C 16.351562 69.433594 23.027344 69.609375 29.722656 69.207031 C 34.066406 68.941406 38.410156 68.679688 42.746094 68.304688 C 45.503906 68.066406 48.25 67.660156 50.835938 66.558594 C 51.574219 66.238281 52.199219 65.824219 52.367188 64.839844 Z M 52.367188 64.839844 "/>
    <path style=" stroke:none;fill-rule:nonzero;fill:rgb(100%,100%,100%);fill-opacity:1;" d="M 39.320312 61.527344 C 37.292969 62.03125 35.285156 62.644531 33.234375 63.023438 C 28.136719 63.976562 23.039062 63.871094 18 62.585938 C 17.066406 62.339844 16.175781 61.953125 15.355469 61.441406 C 14.199219 60.71875 14.238281 59.714844 15.371094 58.933594 C 15.816406 58.628906 16.320312 58.40625 16.914062 58.082031 C 16.964844 59.589844 17.910156 59.957031 19.03125 60.074219 C 24.050781 60.621094 29.121094 60.496094 34.109375 59.703125 C 35.441406 59.488281 36.507812 59.5625 37.582031 60.328125 C 38.121094 60.710938 38.738281 60.992188 39.316406 61.320312 Z M 39.320312 61.527344 "/>
    <path style=" stroke:none;fill-rule:nonzero;fill:rgb(100%,100%,100%);fill-opacity:1;" d="M 40.285156 53.308594 C 38.027344 53.785156 35.78125 54.339844 33.515625 54.738281 C 29.035156 55.511719 24.527344 55.253906 20.023438 54.925781 C 17.84375 54.769531 15.695312 54.484375 13.644531 53.675781 C 13.042969 53.4375 12.457031 53.199219 12.367188 52.4375 C 12.273438 51.671875 12.632812 51.085938 13.265625 50.695312 C 13.816406 50.355469 14.402344 50.078125 15.015625 49.742188 C 14.816406 51.527344 15.128906 51.828125 16.890625 52.308594 C 17.925781 52.59375 19.035156 52.652344 20.117188 52.710938 C 25.933594 53.015625 31.691406 52.433594 37.425781 51.519531 C 37.808594 51.480469 38.191406 51.5625 38.519531 51.757812 C 39.136719 52.132812 39.695312 52.609375 40.285156 53.050781 Z M 40.285156 53.308594 "/>
    <path style=" stroke:none;fill-rule:nonzero;fill:rgb(100%,100%,100%);fill-opacity:1;" d="M 42.664062 43.878906 C 41.554688 45.199219 40.097656 45.273438 38.691406 45.464844 C 33.164062 46.214844 27.628906 46.96875 22.039062 46.945312 C 17.230469 46.925781 12.417969 46.8125 7.710938 45.683594 C 7.359375 45.613281 7.023438 45.496094 6.703125 45.34375 C 6.5 45.238281 6.214844 44.992188 6.226562 44.828125 C 6.242188 44.582031 6.429688 44.242188 6.640625 44.128906 C 7.578125 43.621094 8.519531 43.089844 9.523438 42.742188 C 11.183594 42.164062 12.882812 41.710938 14.570312 41.222656 C 14.746094 41.167969 14.949219 41.214844 15.179688 41.324219 C 14.824219 41.492188 14.457031 41.65625 14.097656 41.824219 C 13.433594 42.136719 12.765625 42.433594 12.117188 42.777344 C 11.660156 43.015625 11.3125 43.371094 11.40625 43.960938 C 11.5 44.550781 11.988281 44.644531 12.457031 44.757812 C 15.113281 45.40625 17.828125 45.375 20.53125 45.449219 C 26.980469 45.632812 33.371094 44.929688 39.757812 44.207031 Z M 42.664062 43.878906 "/>
    <path style=" stroke:none;fill-rule:nonzero;fill:rgb(100%,100%,100%);fill-opacity:1;" d="M 15.003906 73.617188 C 16.21875 73.617188 17.441406 73.542969 18.652344 73.628906 C 24.542969 74.035156 30.429688 74.125 36.320312 73.667969 C 41.359375 73.273438 46.371094 72.714844 51.148438 70.9375 C 52.421875 70.460938 53.632812 69.8125 54.871094 69.242188 C 55.007812 69.179688 55.144531 69.113281 55.28125 69.050781 L 55.402344 69.191406 C 54.957031 69.585938 54.550781 70.027344 54.066406 70.367188 C 51.777344 71.957031 49.183594 72.78125 46.488281 73.320312 C 40.074219 74.59375 33.597656 75.070312 27.070312 74.988281 C 23.066406 74.9375 19.082031 74.714844 15.164062 73.804688 C 15.109375 73.792969 15.054688 73.769531 15 73.753906 Z M 15.003906 73.617188 "/>
    <path style=" stroke:none;fill-rule:nonzero;fill:rgb(100%,100%,100%);fill-opacity:1;" d="M 46.84375 53.585938 C 47.417969 53.140625 48.003906 52.699219 48.566406 52.253906 C 49.933594 51.164062 51.289062 50.046875 52.191406 48.527344 C 52.6875 47.695312 53.140625 46.761719 53.335938 45.820312 C 53.894531 43.132812 52.257812 40.980469 49.492188 40.597656 C 49.003906 40.53125 48.507812 40.507812 48.019531 40.460938 L 47.996094 40.292969 C 48.722656 40.195312 49.441406 40.027344 50.167969 40.011719 C 52.082031 39.96875 53.675781 40.742188 54.960938 42.121094 C 56.277344 43.53125 56.535156 45.800781 55.554688 47.554688 C 55.152344 48.300781 54.648438 48.988281 54.058594 49.597656 C 52.296875 51.355469 50.160156 52.683594 47.808594 53.484375 C 47.515625 53.585938 47.207031 53.644531 46.902344 53.722656 Z M 46.84375 53.585938 "/>
  </g>
</svg>

<svg width="155" height="75" viewBox="0 0 264 128" xmlns="http://www.w3.org/2000/svg">
    <path style="stroke:none;fill-rule:nonzero;fill:#fff;fill-opacity:1" d="M155 57.77c-1.207 0-2.348.023-3.488-.012-.676-.02-1.028-.363-1.164-1.051-.075-.367-.059-.75-.13-1.117-.12-.63-.464-.8-1.027-.508a6.59 6.59 0 0 0-.925.637c-3.262 2.539-6.895 3.32-10.903 2.34-3.203-.782-5.285-3.399-5.52-6.77-.37-5.336 3.13-8.71 7.165-9.832 1.582-.441 3.265-.543 4.91-.734 1.453-.172 2.918-.25 4.371-.387.809-.078 1.07-.36 1-1.152-.117-1.336-.156-2.7-.465-3.993-.5-2.12-2.015-3.195-4.137-3.41-3.18-.328-6.265.14-9.261 1.25-.238.09-.492.25-.727.227-.21-.02-.508-.196-.594-.383-.218-.5-.343-1.047-.507-1.574-.227-.715-.075-1.117.609-1.371 3.738-1.387 7.543-2.442 11.578-2.055 1.278.11 2.54.371 3.758.773 2.984 1.028 4.383 3.356 5.133 6.325.36 1.41.297 2.773.304 4.156.032 5.926.012 11.855.012 17.785Zm-8.492-14.032c-1.781.04-3.551.125-5.278.645-2.265.687-3.546 2.144-3.78 4.547-.294 3.011 1.515 5.265 4.495 5.492 1.543.121 2.957-.371 4.336-.992 1.625-.727 2.668-1.957 2.828-3.739.157-1.75.133-3.52.16-5.28.004-.442-.296-.673-.746-.673-.671-.004-1.343 0-2.015 0Zm-47.703 2.098v10.477c0 1.218-.239 1.457-1.453 1.468-.356 0-.711.012-1.067 0-1.265-.054-1.805-.586-1.953-1.855-.039-.352-.184-.688-.281-1.035-.364.164-.781.261-1.086.5-2.02 1.578-4.266 2.64-6.82 2.988-2.555.348-4.97-.094-7.165-1.484-1.574-1-2.316-2.575-2.695-4.32-.887-4.098.344-8.571 5.88-10.657a21.235 21.235 0 0 1 7.015-1.328c.906-.024 1.808-.035 2.71-.059.782-.02 1.212-.289 1.376-.976.445-1.899.336-3.742-.66-5.465-.903-1.559-2.376-2.106-4.06-2.32-2.776-.36-5.425.25-8.062 1.007-.472.133-.937.297-1.406.457-.496.168-.746-.05-.867-.515-.106-.399-.203-.801-.348-1.188-.355-.953-.183-1.43.793-1.73 1.64-.512 3.29-1.02 4.957-1.41 3.164-.739 6.34-.86 9.504.058 3.531 1.02 5.59 3.7 5.64 7.39.02 1.669 0 3.333 0 5v5Zm-5.375 1.496h-.04c0-.89.008-1.785 0-2.672-.007-.746-.18-.93-.91-.922-1.027.008-2.058-.015-3.082.075-1.234.105-2.488.207-3.687.496-2.547.617-3.742 1.957-4.047 4.421-.219 1.774.059 3.43 1.582 4.598 1.344 1.027 2.895 1.344 4.543 1 1.82-.379 3.356-1.375 4.844-2.426.672-.476.8-1.234.8-2.015-.003-.852-.003-1.703-.003-2.555Zm23.28 4.941c.778-2.324 1.653-4.62 2.317-6.976 1.078-3.848 2.059-7.727 2.996-11.61.32-1.34.41-2.738.563-4.12.11-.973.2-1.114 1.187-1.122a93.316 93.316 0 0 1 3.915.024c.699.02.874.285.718.968-1.761 7.68-3.57 15.348-6.422 22.723a109.593 109.593 0 0 1-1.78 4.274c-.481 1.101-1.044 1.379-2.243 1.347a88.82 88.82 0 0 0-4.328 0c-1.012.02-1.34-.172-1.645-1.148-2.808-8.992-5.613-17.985-8.418-26.98a4.147 4.147 0 0 1-.136-.579c-.067-.414.093-.644.539-.64 1.129 0 2.257-.008 3.382 0 1.122.007 1.93.57 2.305 1.632.613 1.735 1.23 3.47 1.754 5.239 1.527 5.16 3.008 10.336 4.512 15.5.144.488.367.953.554 1.43ZM71.016 37.39c0 4.403.05 8.801-.02 13.2-.039 2.414-.11 4.844-.469 7.222-.66 4.395-2.968 7.711-6.937 9.856-1.621.879-3.7-.27-4.246-1.469-.203-.441-.239-.793.285-1.09 3.324-1.906 4.941-4.918 5.344-8.629.168-1.55.187-3.125.191-4.69.031-7.216.047-14.43.043-21.65 0-3.453-.055-6.898-.074-10.347-.008-1.797.367-2.164 2.168-2.102.75.024 1.5.07 2.246.16.844.106 1.168.434 1.305 1.282.062.433.09.867.078 1.305.007 5.648.007 11.3 0 16.953ZM36.547.012c.07.086.176.16.203.258.684 2.699.871 5.39-.102 8.074-.699 1.922-1.843 3.543-3.289 4.96-2.402 2.36-4.832 4.688-7.218 7.063-.801.797-1.516 1.676-2.246 2.535-2.29 2.684-2.735 5.657-1.23 8.848.745 1.574 1.651 3.07 2.476 4.605.097.18.172.375.254.567l-.172.137c-.235-.266-.465-.543-.711-.801a38.502 38.502 0 0 1-5.446-7.106c-1.187-1.992-1.214-3.984.098-5.867.938-1.336 1.973-2.652 3.168-3.754 2.355-2.172 4.867-4.18 7.285-6.281 1.137-.984 2.281-1.977 3.305-3.074 2.226-2.399 3.297-5.32 3.539-8.563.023-.308-.074-.625-.098-.937-.015-.211 0-.426 0-.64Zm0 0" transform="matrix(1.70323 0 0 1.707 0 -.008)"/>
    <path style="stroke:none;fill-rule:nonzero;fill:#fff;fill-opacity:1" d="M43.027 14.91c-2.168 1.625-4.289 3.086-6.265 4.73-1.23 1.032-2.328 2.262-3.317 3.536-1.375 1.77-1.379 3.691-.172 5.597.739 1.172 1.5 2.332 2.184 3.536.723 1.27 1.258 2.62 1.035 4.132a3.85 3.85 0 0 1-.336 1.192c-.93 1.824-2.375 3.164-4.035 4.285l-.137-.09c.102-.164.196-.336.305-.496 1.29-1.89 1.316-3.809.086-5.73-.422-.668-.938-1.278-1.402-1.918-1.047-1.434-1.95-2.946-2.297-4.72-.535-2.69.246-5.015 2.058-7.023 1.946-2.148 4.301-3.734 6.91-4.941 1.57-.727 3.204-1.344 4.813-2.004.145-.059.32-.05.57-.086Zm9.34 49.93c.438.476.336.86-.008 1.11-.808.593-1.605 1.245-2.504 1.667-2.218 1.031-4.597 1.582-6.996 2.008-5.058.898-10.175 1.195-15.297 1.352-5.386.16-10.765.05-16.136-.29-3.047-.195-6.067-.585-9.012-1.417a8.462 8.462 0 0 1-1.844-.79c-.644-.367-.746-.925-.285-1.507.332-.442.742-.82 1.211-1.114 1.809-1.035 3.79-1.554 5.899-1.695-.196.09-.395.172-.586.266-.555.265-1.118.511-1.649.812-.437.242-.723.625-.68 1.164.043.54.41.832.864.953 1.449.383 2.894.832 4.367 1.063 6.64 1.012 13.316 1.187 20.012.785 4.343-.266 8.687-.527 13.023-.902 2.758-.239 5.504-.645 8.09-1.746.738-.32 1.363-.735 1.531-1.72ZM39.32 61.527c-2.027.504-4.035 1.118-6.086 1.496-5.097.954-10.195.848-15.234-.437a9.64 9.64 0 0 1-2.645-1.145c-1.156-.722-1.117-1.726.016-2.507.445-.305.95-.528 1.543-.852.05 1.508.996 1.875 2.117 1.992 5.02.547 10.09.422 15.078-.37 1.332-.216 2.399-.142 3.473.624.54.383 1.156.664 1.734.992Zm.965-8.218c-2.258.476-4.504 1.03-6.77 1.43-4.48.773-8.988.515-13.492.187-2.18-.156-4.328-.442-6.378-1.25-.602-.239-1.188-.477-1.278-1.239-.094-.765.266-1.351.899-1.742.55-.34 1.136-.617 1.75-.953-.2 1.785.113 2.086 1.875 2.567 1.035.285 2.144.343 3.226.402 5.817.305 11.574-.277 17.309-1.191a1.78 1.78 0 0 1 1.094.238c.617.375 1.175.851 1.765 1.293Zm2.379-9.43c-1.11 1.32-2.566 1.394-3.973 1.586-5.527.75-11.062 1.504-16.652 1.48-4.809-.02-9.621-.133-14.328-1.261a4.315 4.315 0 0 1-1.008-.34c-.203-.106-.488-.352-.476-.516.015-.246.203-.586.414-.7.937-.507 1.879-1.038 2.882-1.386 1.66-.578 3.36-1.031 5.047-1.52.176-.054.38-.007.61.102-.356.168-.723.332-1.082.5-.664.313-1.332.61-1.98.953-.458.239-.806.594-.712 1.184.094.59.582.684 1.051.797 2.656.648 5.371.617 8.074.691 6.45.184 12.84-.52 19.227-1.242Zm-27.66 29.738c1.215 0 2.437-.074 3.648.012 5.891.406 11.778.496 17.668.039 5.04-.395 10.051-.953 14.828-2.73 1.274-.477 2.485-1.126 3.723-1.696.137-.062.274-.129.41-.191l.121.14c-.445.395-.851.836-1.336 1.176-2.289 1.59-4.882 2.414-7.578 2.953-6.414 1.274-12.89 1.75-19.418 1.668-4.004-.05-7.988-.273-11.906-1.183-.055-.012-.11-.035-.164-.051Zm31.84-20.031c.574-.445 1.16-.887 1.722-1.332 1.368-1.09 2.723-2.207 3.625-3.727.496-.832.95-1.765 1.145-2.707.559-2.687-1.078-4.84-3.844-5.222-.488-.067-.984-.09-1.472-.137l-.024-.168c.727-.098 1.445-.266 2.172-.281 1.914-.043 3.508.73 4.793 2.11 1.316 1.41 1.574 3.679.594 5.433a9.254 9.254 0 0 1-1.496 2.043 16.272 16.272 0 0 1-6.25 3.886c-.293.102-.602.16-.907.239Zm0 0" transform="matrix(1.70323 0 0 1.707 0 -.008)"/>
</svg>
